patrol c.svg

<?xml version="1.0" encoding="UTF-8" standalone="no"?>
<!-- Created with Inkscape (http://www.inkscape.org/) -->

<svg
   width="480"
   height="480"
   viewBox="0 0 127 127"
   version="1.1"
   id="svg5"
   xml:space="preserve"
   inkscape:version="1.2.1 (9c6d41e410, 2022-07-14)"
   sodipodi:docname="patrol c.svg"
   inkscape:export-filename="20 Parsecs\images\patrol-b-icon.png"
   inkscape:export-xdpi="2.4000001"
   inkscape:export-ydpi="2.4000001"
   xmlns:inkscape="http://www.inkscape.org/namespaces/inkscape"
   xmlns:sodipodi="http://sodipodi.sourceforge.net/DTD/sodipodi-0.dtd"
   xmlns="http://www.w3.org/2000/svg"
   xmlns:svg="http://www.w3.org/2000/svg"><sodipodi:namedview
     id="namedview7"
     pagecolor="#353535"
     bordercolor="#000000"
     borderopacity="0.25"
     inkscape:showpageshadow="2"
     inkscape:pageopacity="0"
     inkscape:pagecheckerboard="0"
     inkscape:deskcolor="#d1d1d1"
     inkscape:document-units="mm"
     showgrid="true"
     inkscape:zoom="0.69274165"
     inkscape:cx="-428.73126"
     inkscape:cy="324.79641"
     inkscape:window-width="1920"
     inkscape:window-height="1017"
     inkscape:window-x="-8"
     inkscape:window-y="-8"
     inkscape:window-maximized="1"
     inkscape:current-layer="layer1"><inkscape:grid
       type="xygrid"
       id="grid419"
       spacingx="5.2916667"
       spacingy="5.2916667"
       empspacing="2"
       originx="0"
       originy="0" /></sodipodi:namedview><defs
     id="defs2" /><g
     inkscape:label="Réteg 1"
     inkscape:groupmode="layer"
     id="layer1"><path
       id="path14448"
       style="fill:#ffffff;fill-rule:evenodd;stroke:none;stroke-width:126.492;stroke-linecap:round;stroke-linejoin:round;paint-order:markers fill stroke;stop-color:#000000"
       d="M 42.333333,10.583333 31.75,31.75 V 21.166667 H 21.166667 v 31.75 L 10.583333,74.083333 v 42.333337 l 10.583334,-10.58334 v 10.58334 H 31.75 v -10.58334 l 10.583333,10.58334 h 42.333334 l 10.583334,-10.58334 -10e-7,10.58334 h 10.58333 v -10.58334 l 10.58334,10.58334 V 74.083333 L 105.83333,52.916667 v -31.75 H 95.250001 V 31.75 L 84.666667,10.583333 Z"
       sodipodi:nodetypes="ccccccccccccccccccccccccc" /><path
       id="path15694"
       style="color:#000000;fill:#000000;fill-rule:evenodd;stroke-linecap:round;stroke-linejoin:round;paint-order:markers fill stroke"
       d="M 63.5 21.16615 C 54.126146 21.16615 45.86738 26.468355 40.271444 34.207214 C 34.675508 41.946075 31.423922 52.237283 31.423922 63.5 C 31.423922 74.762717 34.675508 85.053925 40.271444 92.792786 C 45.86738 100.53165 54.126146 105.83385 63.5 105.83385 C 72.873854 105.83385 81.13262 100.53165 86.728556 92.792786 C 88.511893 90.326532 90.055635 87.600208 91.333443 84.666667 L 79.429777 84.666667 C 79.020638 85.336369 78.594851 85.979641 78.152336 86.591614 C 74.054147 92.259174 68.918882 95.25 63.5 95.25 C 58.081118 95.25 52.945853 92.259174 48.847664 86.591614 C 44.749476 80.924053 42.007772 72.694791 42.007772 63.5 C 42.007772 54.305209 44.749476 46.075947 48.847664 40.408386 C 52.945853 34.740826 58.081118 31.75 63.5 31.75 C 68.918882 31.75 74.054147 34.740826 78.152336 40.408386 C 78.594851 41.020359 79.020638 41.663631 79.429777 42.333333 L 91.333443 42.333333 C 90.055635 39.399792 88.511893 36.673468 86.728556 34.207214 C 81.13262 26.468355 72.873854 21.16615 63.5 21.16615 z " /></g></svg>

<?xml version="1.0" encoding="UTF-8" standalone="no"?>
<!-- Created with Inkscape (http://www.inkscape.org/) -->

<svg
   width="480"
   height="480"
   viewBox="0 0 127 127"
   version="1.1"
   id="svg5"
   xml:space="preserve"
   inkscape:version="1.2.1 (9c6d41e410, 2022-07-14)"
   sodipodi:docname="patrol c.svg"
   inkscape:export-filename="20 Parsecs\images\patrol-b-icon.png"
   inkscape:export-xdpi="2.4000001"
   inkscape:export-ydpi="2.4000001"
   xmlns:inkscape="http://www.inkscape.org/namespaces/inkscape"
   xmlns:sodipodi="http://sodipodi.sourceforge.net/DTD/sodipodi-0.dtd"
   xmlns="http://www.w3.org/2000/svg"
   xmlns:svg="http://www.w3.org/2000/svg"><sodipodi:namedview
     id="namedview7"
     pagecolor="#353535"
     bordercolor="#000000"
     borderopacity="0.25"
     inkscape:showpageshadow="2"
     inkscape:pageopacity="0"
     inkscape:pagecheckerboard="0"
     inkscape:deskcolor="#d1d1d1"
     inkscape:document-units="mm"
     showgrid="true"
     inkscape:zoom="1.3854833"
     inkscape:cx="106.82193"
     inkscape:cy="220.86156"
     inkscape:window-width="1920"
     inkscape:window-height="1017"
     inkscape:window-x="-8"
     inkscape:window-y="-8"
     inkscape:window-maximized="1"
     inkscape:current-layer="layer1"><inkscape:grid
       type="xygrid"
       id="grid419"
       spacingx="5.2916667"
       spacingy="5.2916667"
       empspacing="2"
       originx="0"
       originy="0" /></sodipodi:namedview><defs
     id="defs2" /><g
     inkscape:label="Réteg 1"
     inkscape:groupmode="layer"
     id="layer1"><path
       id="path14448"
       style="fill:#ffffff;fill-rule:evenodd;stroke:none;stroke-width:126.492;stroke-linecap:round;stroke-linejoin:round;paint-order:markers fill stroke;stop-color:#000000"
       d="M 42.333333 10.583333 L 31.75 31.75 L 31.75 21.166667 L 21.166667 21.166667 L 21.166667 52.916667 L 10.583333 74.083333 L 10.583333 116.41667 L 21.166667 105.83333 L 21.166667 116.41667 L 31.75 116.41667 L 31.75 105.83333 L 42.333333 116.41667 L 84.666667 116.41667 L 95.25 105.83333 L 95.25 116.41667 L 105.83333 116.41667 L 105.83333 105.83333 L 116.41667 116.41667 L 116.41667 74.083333 L 105.83333 52.916667 L 105.83333 21.166667 L 95.25 21.166667 L 95.25 31.75 L 84.666667 10.583333 L 42.333333 10.583333 z M 63.5 21.166667 A 31.75 42.333332 0 0 1 94.240759 52.916667 L 72.664815 52.916667 A 10.583333 21.166666 0 0 0 63.5 42.333333 A 10.583333 21.166666 0 0 0 52.916667 63.5 A 10.583333 21.166666 0 0 0 63.5 84.666667 A 10.583333 21.166666 0 0 0 72.664815 74.083333 L 94.236625 74.083333 A 31.75 42.333332 0 0 1 63.5 105.83333 A 31.75 42.333332 0 0 1 31.75 63.5 A 31.75 42.333332 0 0 1 63.5 21.166667 z " /></g></svg>
